X:1
T:Title
%%score 1 { 2 | 3 }
L:1/8
Q:1/4=110
M:4/4
K:Ab
V:1 treble nm="Grand Piano, Soprano"
V:2 bass nm="Choir Pad, Bognor Regis, 86.88.86"
V:3 bass 
V:1
 [CF]2 [Cc]2 [Fc]2 [FB]2 | [EB]2 [CA]2 [FA]2 [=EG]2 | [CF]2 [CG]2 [CA]2 [DB]2 | [CA]2 [CG]6 | %4
w: By~Adapted~by~Richard~W~Adams,~2015 * * *||||
 [CG]2 [CA]2 [DA]2 [DB]2 | [EB]2 [Ec]2 [EB]2 [CA]2 | [FA]2 [Fd]2 [Fc]2 [FB]2 | %7
w: |||
 [EB]2 [CA]2 [B,G]2 [A,F]2 | [Fc]2 [=Ec]2 [Fc]2 [FB]2 | [EG]2 [EA]2 [FB]2 [=Ec]2- | %10
w: |||
 [Ec]4 [CA]2 [CG]2 | [CF]2 [DF]2 [C=E]2 [CF]2- | [CF]6 z2 |] %13
w: |||
V:2
 A,2 G,2 A,2 F,2 | G,2 A,2 C2 C2 | A,2 G,2 F,2 F,2 | F,2 =E,6 | G,2 F,2 F,2 F,2 | G,2 A,2 G,2 A,2 | %6
 C2 B,2 A,2 A,2 | G,2 A,2 G,2 F,2 | A,2 G,2 A,2 B,2 | B,2 C2 F,2 G,2- | G,4 F,2 G,2 | %11
 A,2 G,2 G,2 A,2- | A,6 z2 |] %13
V:3
 F,2 =E,2 F,2 =D,2 | E,2 F,2 F,,2 C,2 | F,2 =E,2 z2 B,,2 | F,,2 C,6 | =E,2 z2 D,2 B,,2 | %5
 E,2 A,,2 E,2 A,,2 | F,2 B,,2 F,2 D,2 | E,2 A,,2 G,,2 F,,2 | F,2 C,2 F,2 D,2 | E,2 A,,2 D,2 C,2- | %10
 C,4 z2 =E,2 | F,2 B,,2 C,2 F,2- | F,6 z2 |] %13

